X:19
T:Peacock Hornpipe. JBu.19
O:England,South Yorkshire
S:Joshua Burnett’s MS,c1835,S.Yorkshire
M:C|
L:1/8
Q:1/2=80
R:.hornpipe
Z:vmp.R.Greig.2010
K:A
(3efg|a2ec ABcA|GABG E2ED|CEA2GBB2|Aceg aefg|
a2ec ABcA|GABG E2ED|CE Ac dfed|cABG A2:|
|:ed|cede ceBe|Aceg agfe|defe dcBA|GABG E2ed|
cede ceBe|Aceg agfe|cafd cABG|A2A2A2:|

